X:1
T:Liberty
L:1/8
M:4/4
I:linebreak $
K:D
V:1 treble+8
V:1
 de |"D" f2 A2 f2 A2 | fe fg fe df |"G" g2 B2 g2 B2 | gf ga gf ed |"D" f2 A2 f2 A2 | fe fg fe df | $
"A"ef ed cA Bc |"D" d2 dd d2 FG :|: "D"A2 AB AG FE | DF Ad f2 d2 | A2 AB AG FD | $
"A"E2 EF E2 FG |"D"  A2 AB AG FE | DF Ad fd ef |"A" gf ed cA Bc |"D" d2 dd d2 de :|
